static/icons/companies/github-gray.svg

<svg width="32" height="32" viewBox="0 0 32 32" fill="none" xmlns="http://www.w3.org/2000/svg">
<g clip-path="url(#clip0_1507_11)">
<path fill-rule="evenodd" clip-rule="evenodd" d="M15.956 1.33325C7.86985 1.33325 1.33301 8.05547 1.33301 16.3718C1.33301 23.0194 5.52139 28.6466 11.3318 30.6382C12.0582 30.7879 12.3243 30.3146 12.3243 29.9164C12.3243 29.5678 12.3004 28.3728 12.3004 27.1276C8.23263 28.0241 7.38555 25.3349 7.38555 25.3349C6.73184 23.5921 5.76324 23.1441 5.76324 23.1441C4.43186 22.2229 5.86022 22.2229 5.86022 22.2229C7.33706 22.3225 8.112 23.7665 8.112 23.7665C9.41913 26.057 11.5254 25.4098 12.3728 25.0114C12.4937 24.0403 12.8814 23.3681 13.2929 22.9947C10.0486 22.6461 6.63516 21.3514 6.63516 15.5749C6.63516 13.9316 7.21584 12.5872 8.13595 11.5416C7.99078 11.1682 7.48223 9.6242 8.28142 7.55772C8.28142 7.55772 9.51611 7.15928 12.3001 9.10139C13.492 8.7722 14.7212 8.60474 15.956 8.60333C17.1907 8.60333 18.4493 8.77781 19.6116 9.10139C22.3958 7.15928 23.6305 7.55772 23.6305 7.55772C24.4297 9.6242 23.9209 11.1682 23.7757 11.5416C24.7201 12.5872 25.2768 13.9316 25.2768 15.5749C25.2768 21.3514 21.8633 22.621 18.5948 22.9947C19.1276 23.4677 19.5873 24.3639 19.5873 25.7832C19.5873 27.7999 19.5634 29.4184 19.5634 29.9161C19.5634 30.3146 19.8298 30.7879 20.5559 30.6385C26.3663 28.6462 30.5547 23.0194 30.5547 16.3718C30.5786 8.05547 24.0179 1.33325 15.956 1.33325Z" fill="#545556"/>
</g>
<defs>
<clipPath id="clip0_1507_11">
<rect width="29.3333" height="29.3333" fill="white" transform="translate(1.33301 1.33325)"/>
</clipPath>
</defs>
</svg>

<svg xmlns="http://www.w3.org/2000/svg" width="32" height="32" fill="none"><g clip-path="url(#a)"><path fill="#545556" fill-rule="evenodd" d="M15.956 1.333c-8.086 0-14.623 6.722-14.623 15.039 0 6.647 4.188 12.275 9.999 14.266.726.15.992-.323.992-.722 0-.348-.024-1.543-.024-2.788-4.067.896-4.914-1.793-4.914-1.793-.654-1.743-1.623-2.19-1.623-2.19-1.331-.922.097-.922.097-.922 1.477.1 2.252 1.544 2.252 1.544 1.307 2.29 3.413 1.643 4.26 1.244.122-.97.51-1.643.92-2.016-3.243-.349-6.657-1.644-6.657-7.42 0-1.643.58-2.988 1.5-4.033-.144-.374-.653-1.918.146-3.984 0 0 1.235-.399 4.02 1.543a13.79 13.79 0 0 1 3.655-.498c1.235 0 2.493.175 3.656.498 2.784-1.942 4.019-1.543 4.019-1.543.799 2.066.29 3.61.145 3.984.944 1.045 1.5 2.39 1.5 4.033 0 5.776-3.413 7.046-6.681 7.42.533.473.992 1.369.992 2.788 0 2.017-.024 3.635-.024 4.133 0 .399.267.872.993.723 5.81-1.993 9.999-7.62 9.999-14.267.024-8.317-6.537-15.039-14.599-15.039" clip-rule="evenodd"/></g><defs><clipPath id="a"><path fill="#fff" d="M1.333 1.333h29.333v29.333H1.333z"/></clipPath></defs></svg>
